X: 1922
T: Vah Meyûs-i Visâlindir Gönül
C: Mahmud Celâleddin Paşa
O: Turkey
F: http://compmusic.upf.edu/node/140
N: karcigar--sarki--semai--vah_meyus-i--mahmud_celaleddin_pasa
N: makam= karcigar
N: form= sarki
N: usul= semai = 3/4
M: 3/4
L: 1/16
K: C _2/4B _3/4e ^3/4f 
Q: 1/4=138
%%MIDI tuningsystem comma53
g4 f4 e4  | d4 c4 B4  | d4 c4 B4  | A4 G4 F4  | \
w:  ARANAĞME  |   |   |   | 
G4 A4 B4  | c4 d4 e2d2  | d12  | d8 z4  | 
w:   |   |   |   | 
d4 e4 f4  | g4 a4 b4  | c'2d'2 c'2_b2 a2g2  | \
w:   |   |   | 
g2f2 e2d2 c4  | c2B2 c4 A4  | 
w:   |   | 
B2A2 B4 G4  | A12  | A8 z4  | g4 f4 e4  | d4 c4 B4  | \
w:   |   |   |  ARANAĞME  |   | 
d4 c4 B4  | A4 G4 F4  | G4 A4 B4  | 
w:   |   |   | 
c4 d4 e2d2  | d12  | d8 z4  | d4 e4 f4  | g4 a4 b4  | \
w:   |   |   |   |   | 
c'2d'2 c'2_b2 a2g2  | g2f2 e2d2 c4  | 
w:   |   | 
c2B2 c4 A4  | B2A2 B4 G4  | A12  | A8 z4  | \
w:   |   |   |   | 
d8 g4  | f4 e4 d4  | d4 c4 B4  | d2c2 B2A2 G4  | 
w:  Vah   |  me  |  yûs_  |   | 
c4 B4 c4  | d4 c4 {f}e2d2  | d12  | d12  | \
w:  i  *  vi  |  sâ  |  lin  |   | 
d4 g4 g4  | g2f2 g8  | a4 g4 a4  | f4 e4 d4  | 
w:  dir  *  gö  |  nül   |  ah   |   | 
c'2_b2 a2g2 f4  | g2f2 e4 {f}e2d2  | d12  | \
w:  ah   |  *  *  *  *  gö  |  nül    | 
c4 B4 A4  | d8 g4  | f4 e4 d4  | d4 c4 B4  | 
w:  SAZ  |  Vah   |  me  |  yûs_  | 
d2c2 B2A2 G4  | c4 B4 c4  | d4 c4 {f}e2d2  | d12  | d12  | \
w:   |  i  *  vi  |  sâ  |  lin  |   | 
d4 g4 g4  | g2f2 g8  | a4 g4 a4  | 
w:  dir  *  gö  |  nül   |  ah   | 
f4 e4 d4  | c'2_b2 a2g2 f4  | g2f2 e4 {f}e2d2  | d12  | \
w:   |  ah   |  *  *  *  *  gö  |  nül    | 
d2e2 f2a2 g4  | d4 g4 g4  | 
w:  SAZ  |  Şim *  di   | 
g2f2 g8  | f2g2 a2b2 c'2d'2  | c'2_b2 a2g2 f2e2  | \
w:  me  |  nûs_  |   | 
d8 =e4  | d4 c4 B4  | d4 c4 B4  | 
w:  i  ha  |  yâ  |  lin  | 
A8 B4  | G8 B2c2  | d12  | e8 d4  | g2f2 e2d2 c4  | \
w:   |  dir  gö  |  nül   |  ah   |   | 
c2B2 c4 A4  | B2A2 B4 G4  | 
w:  ah   |  *  *  *  gö  | 
A12  | d2e2 f2a2 g4  | d4 g4 g4  | g2f2 g8  | \
w:  nül    |  SAZ  |  Şim *  di   |  me  | 
f2g2 a2b2 c'2d'2  | c'2_b2 a2g2 f2e2  | 
w:  nûs_  |   | 
d8 =e4  | d4 c4 B4  | d4 c4 B4  | A8 B4  | \
w:  i  ha  |  yâ  |  lin  |   | 
G8 B2c2  | d12  | e8 d4  | g2f2 e2d2 c4  | 
w:  dir  gö  |  nül   |  ah   |   | 
c2B2 c4 A4  | B2A2 B4 G4  | A12  | d'2c'2 _1/4b2^a2 b4  | \
w:  ah   |  *  *  *  gö  |  nül    |  SAZ  | 
g4 _1/4b4 b4  | _1/4b12  | c'4 _1/4b4 ^a4  | 
w:  Bül *  bül_  |  i   |  bağ_  | 
^a4 g4 ^1/4f4  | g8 ^f2e2  | _2/4e8 ^3/4d2c2  | \
w:   |  ı  ce  |  mâ  | 
c8 c2=B2  | =B12  | c4 B4 c4  | d12  | a4 g4 a4  | \
w:  lin  |   |  dir  *  gö  |  nül   |  ah   | 
f4 e4 d4  | 
w:   | 
c'2_b2 a2g2 f4  | g2f2 e4 e2d2  | d12  | \
w:  ah   |  *  *  *  gö  |  nül    | 
d'2c'2 _1/4b2^a2 b4  | g4 _1/4b4 b4  | _1/4b12  | \
w:  SAZ  |  Bül *  bül_  |  i   | 
c'4 _1/4b4 ^a4  | 
w:  bağ_  | 
^a4 g4 ^1/4f4  | g8 ^f2e2  | _2/4e8 ^3/4d2c2  | \
w:   |  ı  ce  |  mâ  | 
c8 c2=B2  | =B12  | c4 B4 c4  | d12  | a4 g4 a4  | \
w:  lin  |   |  dir  *  gö  |  nül   |  ah   | 
f4 e4 d4  | 
w:   | 
c'2_b2 a2g2 f4  | g2f2 e4 e2d2  | d12  | \
w:  ah   |  *  *  *  gö  |  nül    | 
d2e2 f2a2 g4  | d4 g4 g4  | g2f2 g8  | 
w:  SAZ  |  Şim *  di   |  me  | 
f2g2 a2b2 c'2d'2  | c'2_b2 a2g2 f2e2  | \
w:  nûs_  |   | 
d8 =e4  | d4 c4 B4  | d4 c4 B4  | A8 B4  | 
w:  i  ha  |  yâ  |  lin  |   | 
G8 B2c2  | d12  | e8 d4  | g2f2 e2d2 c4  | \
w:  dir  gö  |  nül   |  ah   |   | 
c2B2 c4 A4  | B2A2 B4 G4  | A12  | d2e2 f2a2 g4  | 
w:  ah   |  *  *  *  gö  |  nül    |  SAZ  | 
d4 g4 g4  | g2f2 g8  | f2g2 a2b2 c'2d'2  | \
w:  Şim *  di   |  me  |  nûs_  | 
c'2_b2 a2g2 f2e2  | d8 =e4  | d4 c4 B4  | 
w:   |  i  ha  |  yâ  | 
d4 c4 B4  | A8 B4  | G8 B2c2  | d12  | e8 d4  | \
w:  lin  |   |  dir  gö  |  nül   |  ah   | 
g2f2 e2d2 c4  | c2B2 c4 A4  | B2A2 B4 G4  | 
w:   |  ah   |  *  *  *  gö  | 
A12  | |


